<?xml version="1.0" encoding="UTF-8"?>
<map version="1.10" tiledversion="1.12.2" orientation="orthogonal" renderorder="right-down" width="30" height="20" tilewidth="32" tileheight="32" infinite="0" nextlayerid="11" nextobjectid="73">
 <editorsettings>
  <export target="map_one.lua" format="lua"/>
 </editorsettings>
 <tileset firstgid="1" name="Messy_Walls_32x32" tilewidth="32" tileheight="32" tilecount="169" columns="13">
  <image source="Messy_Walls_32x32.png" width="416" height="416"/>
 </tileset>
 <tileset firstgid="170" name="midcentury_modern_room_door_tiles" tilewidth="32" tileheight="32" tilecount="216" columns="18">
  <image source="midcentury_modern_room_door_tiles.png" width="576" height="384"/>
 </tileset>
 <tileset firstgid="386" name="50sdiner_room_door_tiles3" tilewidth="32" tileheight="32" tilecount="216" columns="18">
  <image source="50sdiner_room_door_tiles3.png" width="576" height="384"/>
 </tileset>
 <tileset firstgid="602" name="retro_bathroom_room_door_tiles1" tilewidth="32" tileheight="32" tilecount="216" columns="18">
  <image source="retro_bathroom_room_door_tiles1.png" width="576" height="384"/>
 </tileset>
 <tileset firstgid="818" name="Messy_Terrain_Tiles_32x32" tilewidth="32" tileheight="32" tilecount="60" columns="12">
  <image source="Messy_Terrain_Tiles_32x32.png" width="384" height="160"/>
 </tileset>
 <tileset firstgid="878" name="classic_room_door_tiles" tilewidth="32" tileheight="32" tilecount="216" columns="18">
  <image source="classic_room_door_tiles.png" width="576" height="384"/>
 </tileset>
 <tileset firstgid="1094" name="classic_furnitureset_withshadow" tilewidth="32" tileheight="32" tilecount="121" columns="11">
  <image source="classic_furnitureset_withshadow.png" width="352" height="352"/>
 </tileset>
 <tileset firstgid="1215" name="midcentury_modern_furnitureset" tilewidth="32" tileheight="32" tilecount="270" columns="18">
  <image source="midcentury_modern_furnitureset.png" width="576" height="480"/>
 </tileset>
 <tileset firstgid="1485" name="Messy_Furniture_32x32_Shadow" tilewidth="32" tileheight="32" tilecount="182" columns="13">
  <image source="Messy_Furniture_32x32_Shadow.png" width="416" height="448"/>
 </tileset>
 <tileset firstgid="1667" name="50sdiner_set_withshadow" tilewidth="32" tileheight="32" tilecount="196" columns="14">
  <image source="50sdiner_set_withshadow.png" width="448" height="448"/>
 </tileset>
 <layer id="3" name="ground" width="30" height="20">
  <data encoding="csv">
829,829,841,0,0,0,0,0,0,0,0,0,0,0,0,0,0,0,0,0,853,841,829,829,841,841,829,841,829,829,
853,829,829,0,0,0,0,0,0,0,0,0,0,0,0,0,0,0,0,0,853,829,829,853,829,829,853,829,829,853,
853,829,829,0,0,0,0,0,0,0,0,0,0,0,0,0,0,0,0,0,853,853,829,829,841,829,829,829,853,841,
841,829,829,0,0,0,0,0,0,0,0,0,0,0,0,0,0,0,0,0,853,853,841,841,853,829,853,841,853,841,
0,0,0,0,0,0,0,0,0,0,0,0,0,0,0,0,0,0,0,0,841,853,829,841,853,829,829,829,841,841,
0,0,0,0,0,0,0,0,0,0,0,0,0,0,0,0,0,0,0,0,841,853,841,853,841,853,841,853,853,841,
0,0,0,0,0,0,0,0,0,0,0,0,0,0,0,0,0,0,0,0,841,853,841,829,853,841,829,829,829,841,
0,0,0,0,0,0,0,0,0,0,0,0,0,0,0,0,0,0,0,0,829,853,841,841,853,829,853,829,841,853,
0,0,0,0,0,0,0,0,0,0,0,0,0,0,0,0,0,0,0,0,0,0,0,0,0,0,0,0,0,0,
0,0,0,0,0,0,0,0,0,0,0,0,0,0,0,0,0,0,0,0,0,0,0,0,0,0,0,0,0,0,
0,0,0,0,0,0,0,0,0,0,0,0,0,0,0,0,0,0,0,0,0,0,0,0,0,0,0,0,0,0,
0,0,0,0,0,0,0,0,0,0,0,0,0,0,0,0,0,0,0,0,0,0,0,0,0,0,0,0,0,0,
0,0,0,0,0,0,0,0,0,0,0,0,0,0,0,0,0,0,0,0,0,0,0,0,0,0,0,0,0,0,
0,0,0,0,0,0,0,0,0,0,0,0,0,0,0,0,0,0,0,0,0,0,0,0,0,0,0,0,0,0,
0,0,0,0,0,0,0,0,0,0,0,0,0,0,0,0,0,0,0,0,0,0,0,0,0,0,0,0,0,0,
0,0,0,0,0,0,0,0,0,0,0,0,0,0,0,0,0,0,0,0,0,0,0,0,0,0,0,0,0,0,
0,0,0,0,0,0,0,0,0,0,0,0,0,0,0,0,0,0,0,0,0,0,0,0,0,0,0,0,0,0,
0,0,0,0,0,0,0,0,0,0,0,0,0,0,0,0,0,0,0,0,0,0,0,0,0,0,0,0,0,0,
0,0,0,0,0,0,0,0,0,0,0,0,0,0,0,0,0,0,0,0,0,0,0,0,0,0,0,0,0,0,
0,0,0,0,0,0,0,0,0,0,0,0,0,0,0,0,0,0,0,0,0,0,0,0,0,0,0,0,0,0
</data>
 </layer>
 <layer id="4" name="grass" width="30" height="20">
  <data encoding="csv">
860,0,830,0,0,0,0,0,0,0,0,0,0,0,0,0,0,0,0,0,846,822,820,0,0,0,818,819,820,0,
847,848,830,0,0,0,0,0,0,0,0,0,0,0,0,0,0,0,0,0,831,857,822,820,0,818,821,846,822,820,
859,860,830,0,0,0,0,0,0,0,0,0,0,0,0,0,0,0,0,0,0,0,845,832,0,0,0,0,834,844,
819,819,821,0,0,0,0,0,0,0,0,0,0,0,0,0,0,0,0,0,0,0,858,822,0,0,0,0,0,0,
0,0,0,0,0,0,0,0,0,0,0,0,0,0,0,0,0,0,0,0,0,0,845,858,0,0,0,0,0,0,
0,0,0,0,0,0,0,0,0,0,0,0,0,0,0,0,0,0,0,0,0,0,845,846,0,0,0,0,0,0,
0,0,0,0,0,0,0,0,0,0,0,0,0,0,0,0,0,0,0,0,0,0,857,845,0,0,0,0,0,0,
0,0,0,0,0,0,0,0,0,0,0,0,0,0,0,0,0,0,0,0,0,0,845,846,0,0,0,0,0,0,
0,0,0,0,0,0,0,0,0,0,0,0,0,0,0,0,0,0,0,0,0,0,0,0,0,0,0,0,0,0,
0,0,0,0,0,0,0,0,0,0,0,0,0,0,0,0,0,0,0,0,0,0,0,0,0,0,0,0,0,0,
0,0,0,0,0,0,0,0,0,0,0,0,0,0,0,0,0,0,0,0,0,0,0,0,0,0,0,0,0,0,
0,0,0,0,0,0,0,0,0,0,0,0,0,0,0,0,0,0,0,0,0,0,0,0,0,0,0,0,0,0,
0,0,0,0,0,0,0,0,0,0,0,0,0,0,0,0,0,0,0,0,0,0,0,0,0,0,0,0,0,0,
0,0,0,0,0,0,0,0,0,0,0,0,0,0,0,0,0,0,0,0,0,0,0,0,0,0,0,0,0,0,
0,0,0,0,0,0,0,0,0,0,0,0,0,0,0,0,0,0,0,0,0,0,0,0,0,0,0,0,0,0,
0,0,0,0,0,0,0,0,0,0,0,0,0,0,0,0,0,0,0,0,0,0,0,0,0,0,0,0,0,0,
0,0,0,0,0,0,0,0,0,0,0,0,0,0,0,0,0,0,0,0,0,0,0,0,0,0,0,0,0,0,
0,0,0,0,0,0,0,0,0,0,0,0,0,0,0,0,0,0,0,0,0,0,0,0,0,0,0,0,0,0,
0,0,0,0,0,0,0,0,0,0,0,0,0,0,0,0,0,0,0,0,0,0,0,0,0,0,0,0,0,0,
0,0,0,0,0,0,0,0,0,0,0,0,0,0,0,0,0,0,0,0,0,0,0,0,0,0,0,0,0,0
</data>
 </layer>
 <layer id="1" name="floor" width="30" height="20">
  <data encoding="csv">
0,0,0,0,0,0,0,0,0,0,0,0,0,0,0,0,0,0,0,0,0,0,0,0,0,0,0,0,0,0,
0,0,0,0,0,0,0,0,0,0,0,0,0,0,0,0,0,0,0,0,0,0,0,0,0,0,0,0,0,0,
0,0,0,101,101,114,114,101,114,101,1027,1027,1027,101,101,101,101,101,101,101,0,0,0,0,0,0,0,0,0,0,
0,0,0,114,101,114,101,114,101,101,1027,1027,1027,101,101,101,101,101,101,101,0,0,0,0,0,0,0,0,0,0,
0,0,0,101,114,114,114,114,101,101,1027,1027,1027,101,101,101,101,101,101,101,101,101,0,0,0,751,751,751,0,0,
0,0,0,101,101,101,101,101,101,101,1027,1027,1027,101,101,101,101,101,101,101,101,101,0,0,751,751,751,751,751,751,
753,753,753,101,114,114,101,114,114,101,1027,1027,1027,101,101,101,101,101,101,101,101,101,0,0,751,751,751,751,751,751,
753,753,753,114,101,101,101,114,101,101,1027,1027,1027,101,101,101,101,101,101,101,101,101,0,0,751,751,751,751,751,751,
753,753,753,0,0,0,0,101,101,101,1027,1027,1027,101,101,0,0,0,101,101,0,0,0,0,751,751,751,751,751,751,
753,753,753,0,0,0,0,101,101,101,1027,1027,1027,101,101,0,0,0,101,101,0,0,0,0,751,751,751,751,751,0,
0,0,0,1027,1027,1027,1027,0,0,0,0,0,0,0,0,535,535,535,0,0,319,319,319,319,0,0,0,0,0,0,
0,0,0,1027,1027,1027,1027,0,0,0,0,0,0,0,0,535,535,535,0,0,319,319,319,319,0,0,0,0,0,319,
1027,1027,1027,1027,1027,1027,1027,1027,1027,1027,1027,1027,1027,535,535,535,535,535,535,535,319,319,319,319,319,319,319,319,319,319,
1027,1027,1027,1027,1027,1027,1027,1027,1027,1027,1027,1027,1027,535,535,535,535,535,535,535,319,319,319,319,319,319,319,319,319,319,
1027,1027,1027,1027,1027,1027,1027,1027,1027,1027,1027,1027,1027,535,535,535,535,535,535,535,535,535,319,319,319,319,319,319,319,319,
1027,1027,1027,1027,1027,1027,1027,1027,1027,1027,1027,1027,1027,535,535,535,535,535,535,535,535,535,319,319,319,319,319,319,319,319,
1027,1027,1027,1027,1027,1027,1027,1027,1027,1027,1027,1027,1027,535,535,535,535,535,535,535,535,535,319,319,319,319,319,319,319,319,
1027,1027,1027,1027,1027,1027,1027,1027,1027,1027,1027,1027,1027,535,535,535,535,535,535,535,535,535,319,319,319,319,319,319,319,319,
1027,1027,1027,1027,1027,1027,1027,1027,1027,1027,1027,1027,1027,535,535,535,535,535,535,535,319,319,319,319,319,319,319,319,319,319,
1027,1027,1027,1027,1027,1027,1027,1027,1027,1027,1027,1027,1027,535,535,535,535,535,535,535,319,319,319,319,319,319,319,319,319,319
</data>
 </layer>
 <layer id="2" name="walls" width="30" height="20">
  <data encoding="csv">
0,0,0,99,99,99,99,99,99,99,1008,1008,1008,99,99,99,99,99,99,99,0,0,0,0,0,0,0,0,0,0,
0,0,0,112,112,112,112,112,112,112,1026,1026,1026,112,112,112,112,112,112,112,0,0,0,0,0,0,0,0,0,0,
0,0,0,0,0,0,0,0,0,0,0,0,0,0,0,0,0,0,0,0,99,99,0,0,0,732,732,732,0,0,
0,0,0,0,0,0,0,0,0,0,0,0,0,0,0,0,0,0,0,0,112,112,0,0,732,750,750,750,732,732,
734,734,734,0,0,0,0,0,0,0,0,0,0,0,0,0,0,0,0,0,0,0,0,0,750,0,0,0,750,750,
752,752,752,0,0,0,0,0,0,0,0,0,0,0,0,0,0,0,0,0,0,0,0,0,0,0,0,0,0,0,
0,0,0,0,0,0,0,0,0,0,0,0,0,0,0,0,0,0,0,0,0,0,0,0,0,0,0,0,0,0,
0,0,0,0,0,0,0,0,0,0,0,0,0,0,0,0,0,0,0,0,0,0,0,0,0,0,0,0,0,0,
0,0,0,1008,1008,1008,1008,0,0,0,0,0,0,0,0,516,516,516,0,0,300,300,300,300,0,0,0,0,0,0,
0,0,0,1026,1026,1026,1026,0,0,0,0,0,0,0,0,534,534,534,0,0,318,318,318,318,0,0,0,0,0,300,
1008,1008,1008,0,0,0,0,1008,1008,1008,1008,1008,1008,516,516,0,0,0,516,516,0,0,0,0,300,300,300,300,300,318,
1026,1026,1026,0,0,0,0,1026,1026,1026,1026,1026,1026,534,534,0,0,0,534,534,0,0,0,0,318,318,318,318,318,0,
0,0,0,0,0,0,0,0,0,0,0,0,0,0,0,0,0,0,0,0,0,0,0,0,0,0,0,0,0,0,
0,0,0,0,0,0,0,0,0,0,0,0,0,0,0,0,0,0,0,0,0,0,0,0,0,0,0,0,0,0,
0,0,0,0,0,0,0,0,0,0,0,0,0,0,0,0,0,0,0,0,516,516,0,0,0,0,0,0,0,0,
0,0,0,0,0,0,0,0,0,0,0,0,0,0,0,0,0,0,0,0,534,534,0,0,0,0,0,0,0,0,
0,0,0,0,0,0,0,0,0,0,0,0,0,0,0,0,0,0,0,0,0,0,0,0,0,0,0,0,0,0,
0,0,0,0,0,0,0,0,0,0,0,0,0,0,0,0,0,0,0,0,0,0,0,0,0,0,0,0,0,0,
0,0,0,0,0,0,0,0,0,0,0,0,0,0,0,0,0,0,0,0,0,0,0,0,0,0,0,0,0,0,
0,0,0,0,0,0,0,0,0,0,0,0,0,0,0,0,0,0,0,0,0,0,0,0,0,0,0,0,0,0
</data>
 </layer>
 <layer id="9" name="rugs" width="30" height="20">
  <data encoding="csv">
0,0,0,0,0,0,0,0,0,0,0,0,0,0,0,0,0,0,0,0,0,0,0,0,0,0,0,0,0,0,
0,0,0,0,0,0,0,0,0,0,0,0,0,0,0,0,0,0,0,0,0,0,0,0,0,0,0,0,0,0,
0,0,0,0,0,0,0,0,0,0,0,0,0,0,0,0,0,0,0,0,0,0,0,0,0,0,0,0,0,0,
0,0,0,0,0,0,0,0,0,0,0,0,0,0,0,0,0,0,0,0,0,0,0,0,0,0,0,0,0,0,
0,0,0,0,0,0,0,0,0,0,0,0,0,0,0,0,0,0,0,0,0,0,0,0,0,0,0,0,0,0,
0,0,0,0,0,0,0,0,0,0,0,0,0,0,0,0,0,0,0,0,0,0,0,0,0,0,0,0,0,0,
0,0,0,0,0,0,0,0,0,0,0,0,0,0,0,0,0,0,0,0,0,0,0,0,0,0,0,0,0,0,
0,0,0,0,0,0,0,0,0,0,0,0,0,0,0,0,0,0,0,0,0,0,0,0,0,0,0,0,0,0,
0,0,0,0,0,0,0,0,0,0,0,0,0,0,0,0,0,0,0,0,0,0,0,0,0,0,0,0,0,0,
0,0,0,0,0,0,0,0,0,0,0,0,0,0,0,0,0,0,0,0,0,0,0,0,0,0,0,0,0,0,
0,0,0,0,1193,1194,0,0,0,0,0,0,0,0,0,0,0,0,0,0,0,1373,1374,0,0,0,0,0,0,0,
0,0,0,0,1204,1205,0,0,0,0,0,0,0,0,0,0,0,0,0,0,0,1391,1392,0,0,0,0,0,0,0,
0,0,0,0,0,0,0,0,0,1193,1194,0,0,0,0,0,0,0,0,0,0,0,0,0,0,0,1337,1338,0,0,
0,0,0,0,0,0,0,0,0,1204,1205,0,0,0,0,0,0,0,0,0,0,0,0,0,0,0,1355,1356,0,0,
0,0,0,0,0,0,0,0,0,0,0,0,0,0,0,0,0,0,0,0,0,0,0,0,0,0,0,0,0,0,
0,0,0,0,0,0,0,0,0,0,0,0,0,0,0,0,0,0,0,0,0,0,0,0,0,0,0,0,0,0,
0,0,0,0,0,0,0,0,0,0,0,0,0,0,0,0,0,0,0,0,0,0,0,0,0,0,0,0,0,0,
0,0,0,0,0,0,0,0,0,0,0,0,0,0,0,0,0,0,0,0,1646,1647,0,0,0,0,1265,1266,0,0,
0,0,0,0,0,0,0,0,0,0,0,0,0,0,0,0,0,0,0,0,0,0,0,0,0,0,1283,1284,0,0,
1209,0,0,0,0,0,0,0,0,0,0,0,0,0,0,0,0,0,0,0,0,0,0,0,0,0,0,0,0,0
</data>
 </layer>
 <layer id="8" name="furniture" width="30" height="20">
  <data encoding="csv">
0,0,0,0,0,0,0,0,0,0,0,0,0,0,0,0,0,0,0,0,0,0,0,0,0,0,0,0,0,0,
0,0,0,0,0,0,0,0,0,0,0,0,0,0,0,0,0,0,0,0,0,0,0,0,0,0,0,0,0,0,
0,0,0,0,0,0,0,0,0,0,0,0,0,0,0,0,0,0,0,0,0,0,0,0,0,0,0,0,0,0,
0,0,0,0,0,0,0,0,0,0,0,0,0,0,0,0,0,0,0,0,0,0,0,0,0,0,0,0,0,0,
0,0,0,0,0,0,0,0,0,0,0,0,0,0,0,0,0,0,0,0,0,0,0,0,0,0,0,0,0,0,
0,0,0,0,0,0,0,0,0,0,0,0,0,0,0,0,0,0,0,0,0,0,0,0,0,0,0,0,0,0,
0,0,0,0,0,0,0,0,0,0,0,0,0,0,0,0,0,0,0,0,0,0,0,0,0,0,0,0,0,0,
0,0,0,0,0,0,0,0,0,0,0,0,0,0,0,0,0,0,0,0,0,0,0,0,0,0,0,0,0,0,
0,0,0,0,0,0,0,0,0,0,0,0,0,0,0,0,0,0,0,0,0,0,0,0,0,0,0,0,0,0,
0,0,0,1138,1142,1143,0,0,0,0,0,0,0,0,0,1622,1589,1590,0,0,0,1323,1324,1393,0,0,0,0,0,0,
0,0,0,1149,1153,1154,1171,0,0,0,0,0,0,0,0,1635,1602,1603,0,0,1361,1341,1342,1411,0,0,0,1416,1417,1264,
1189,1122,0,0,0,0,0,0,0,1099,1100,0,1163,1354,0,0,0,0,0,1540,0,0,0,0,0,0,1215,1434,1435,1282,
1200,1133,0,0,0,0,0,0,1158,1110,1111,0,1174,1372,0,0,0,0,0,1553,0,0,0,0,0,1274,1233,1452,1453,0,
0,0,0,0,0,0,0,1102,0,0,0,0,1107,1567,0,0,0,0,0,0,0,0,0,0,0,0,1251,0,0,0,
1146,0,0,0,0,0,0,0,0,1211,1211,0,0,1580,0,0,0,1811,1812,1812,0,0,0,0,0,0,0,0,0,0,
1157,0,0,0,1141,1141,1141,0,0,0,0,0,0,0,0,0,0,1825,1826,1826,1623,1624,0,0,0,0,1215,0,0,0,
1158,0,0,1102,1152,1152,1152,1177,0,0,0,0,0,0,0,0,0,0,1795,0,1636,1637,1141,1383,0,0,1233,1269,1270,0,
0,0,0,0,1176,1176,1176,0,0,0,0,0,1162,0,0,0,0,0,0,0,0,0,1152,1401,0,0,0,0,1459,0,
1199,0,0,0,0,0,0,0,0,0,0,0,1173,1377,1386,0,0,0,0,0,0,0,0,0,0,0,0,0,1477,0,
1210,0,0,0,0,0,0,0,0,0,0,0,0,1395,1404,0,0,0,0,0,0,0,0,0,0,0,0,0,0,0
</data>
 </layer>
 <layer id="5" name="divisions" width="30" height="20">
  <data encoding="csv">
18,29,88,29,29,29,29,29,29,88,29,29,29,89,29,29,29,29,29,29,89,29,29,29,29,29,29,29,29,19,
17,0,15,0,0,0,0,0,0,15,0,0,0,17,0,0,0,0,0,0,31,3,4,0,2,3,3,3,4,15,
17,0,24,0,0,0,0,0,0,15,0,0,0,17,0,0,0,0,0,0,0,0,17,2,32,0,0,0,31,61,
64,3,61,0,0,0,0,0,0,15,0,0,0,17,0,0,0,0,0,0,0,0,17,15,0,0,0,0,0,15,
17,0,15,0,0,0,0,0,0,15,0,0,0,17,0,0,0,0,0,0,0,0,17,15,0,0,0,0,0,15,
17,0,15,0,0,0,0,0,0,20,0,0,0,22,0,0,0,0,0,0,0,0,17,24,0,0,0,0,0,15,
17,0,15,0,0,0,0,0,0,20,0,0,0,22,0,0,0,0,0,0,0,0,17,24,0,0,0,0,0,15,
17,0,15,3,3,3,3,4,0,15,0,0,0,17,2,3,3,3,4,2,3,3,50,61,0,0,0,0,0,15,
17,0,15,0,0,0,0,17,0,15,0,0,0,17,15,0,0,0,17,15,0,0,0,15,0,0,0,0,2,61,
64,3,61,0,0,0,0,31,3,49,3,3,3,50,32,0,0,0,31,61,0,0,0,57,3,3,3,3,32,15,
17,0,20,0,0,0,0,22,0,0,0,0,15,0,20,0,0,0,22,15,0,0,0,20,0,0,0,0,20,15,
17,0,20,0,0,0,0,22,0,0,0,0,15,0,20,0,0,0,22,15,0,0,0,20,0,0,0,0,20,15,
17,0,0,0,0,0,0,0,0,0,0,0,15,0,0,0,0,0,0,15,0,0,0,0,0,0,0,0,0,15,
17,0,0,0,0,0,0,0,0,0,0,0,15,0,0,0,0,0,0,20,0,0,0,0,0,0,0,0,0,15,
17,0,0,0,0,0,0,0,0,0,0,0,66,0,0,0,0,0,0,57,29,19,0,0,0,0,0,0,0,15,
17,0,0,0,0,0,0,0,0,0,0,0,0,0,0,0,0,0,0,66,0,15,0,0,0,0,0,0,0,15,
17,0,0,0,0,0,0,0,0,0,0,0,0,0,0,0,0,0,0,0,0,15,0,0,0,0,0,0,0,15,
17,0,0,0,0,0,0,0,0,0,0,0,53,0,0,0,0,0,0,2,3,32,0,0,0,0,0,0,0,15,
17,0,0,0,0,0,0,0,0,0,0,0,15,0,0,0,0,0,0,20,0,0,0,0,0,0,0,0,0,15,
31,3,3,3,8,8,8,3,3,3,3,3,49,3,3,3,3,3,3,49,3,3,3,3,3,3,3,3,3,32
</data>
 </layer>
 <objectgroup id="7" name="wall_colisions">
  <object id="1" name="left_wall" x="0" y="0" width="6" height="640"/>
  <object id="3" name="right_wall" x="954" y="0" width="6" height="640"/>
  <object id="4" name="top_wall" x="0" y="0" width="960" height="6"/>
  <object id="5" name="bottom_left_wall" x="0" y="634" width="128" height="6"/>
  <object id="6" name="bottom_right_wall" x="224" y="634" width="736" height="6"/>
  <object id="7" x="6" y="314" width="89.875" height="70"/>
  <object id="8" x="90.1042" y="249.938" width="139.875" height="70.2273"/>
  <object id="9" x="224.295" y="313.864" width="255.375" height="70.125"/>
  <object id="10" x="474.011" y="249.864" width="107.875" height="69.0561"/>
  <object id="11" x="576.017" y="313.926" width="63.9659" height="70.0561"/>
  <object id="12" x="634.017" y="250.472" width="133.299" height="69.4311"/>
  <object id="13" x="764.184" y="314.951" width="162.966" height="69.4311"/>
  <object id="14" x="922.017" y="281.784" width="35.5493" height="70.1811"/>
  <object id="15" x="410.076" y="383" width="6" height="97.0057"/>
  <object id="16" x="410.063" y="543.997" width="6" height="92.5057"/>
  <object id="17" x="697.833" y="448.247" width="6" height="126.506"/>
  <object id="18" x="634.25" y="612.914" width="6" height="24.0893"/>
  <object id="19" x="633.841" y="447.577" width="69.5" height="64.6878"/>
  <object id="20" x="634.163" y="569.97" width="69.5" height="5.77871"/>
  <object id="21" x="634.205" y="383.599" width="6" height="27.4833"/>
 </objectgroup>
 <objectgroup id="10" name="furniture_colisions">
  <object id="22" x="128.727" y="501.818" width="94.5455" height="29.6364"/>
  <object id="23" x="136.545" y="548.909" width="14" height="13.6364"/>
  <object id="24" x="201.545" y="548.273" width="14" height="13.6364"/>
  <object id="25" x="167.909" y="548.636" width="14" height="13.6364"/>
  <object id="26" x="228.455" y="520.091" width="14.7273" height="13.6364"/>
  <object id="27" x="240.273" y="511.545" width="3.45457" height="13.0909"/>
  <object id="28" x="241" y="423" width="14" height="15.8182"/>
  <object id="29" x="295.182" y="379.364" width="50.3637" height="30"/>
  <object id="30" x="262.818" y="390.455" width="18.3636" height="12.7273"/>
  <object id="31" x="133.727" y="312.636" width="52.1818" height="22.75"/>
  <object id="32" x="193.364" y="322.08" width="28.5454" height="12.2045"/>
  <object id="33" x="97.9091" y="320.625" width="28.5454" height="13.4772"/>
  <object id="34" x="35.1818" y="383.443" width="25.6363" height="16.0227"/>
  <object id="35" x="5.18185" y="378.534" width="17.0909" height="29.4772"/>
  <object id="36" x="5.45455" y="456.352" width="22.3636" height="39.1136"/>
  <object id="37" x="6.45456" y="518.625" width="19.0909" height="12.2045"/>
  <object id="38" x="111.727" y="518.898" width="16.1818" height="16.2954"/>
  <object id="39" x="288.909" y="455.216" width="62.5454" height="17.9318"/>
  <object id="40" x="389.818" y="417.034" width="19.9999" height="19.2045"/>
  <object id="41" x="397.818" y="384.216" width="13.2726" height="19.2045"/>
  <object id="42" x="402.697" y="567.064" width="13.2726" height="24.7045"/>
  <object id="43" x="6.8182" y="602.943" width="18.8636" height="34.6136"/>
  <object id="44" x="519.818" y="313.5" width="50.3637" height="19.5"/>
  <object id="45" x="486.318" y="310.25" width="19.8637" height="22.5"/>
  <object id="47" x="419.068" y="384.25" width="19.8637" height="22"/>
  <object id="48" x="420.068" y="427" width="24.7728" height="34.9091"/>
  <object id="49" x="566.401" y="468.061" width="69.4395" height="26.2424"/>
  <object id="51" x="592" y="512.667" width="15.3333" height="18"/>
  <object id="52" x="648.333" y="504.333" width="46.6666" height="22.3333"/>
  <object id="53" x="416" y="596.167" width="31.6666" height="29.3333"/>
  <object id="54" x="453.803" y="609.333" width="14.9393" height="16.7878"/>
  <object id="55" x="466.712" y="597.97" width="2.03021" height="16.7878"/>
  <object id="56" x="703.121" y="532.833" width="33.0643" height="30.9128"/>
  <object id="57" x="742.343" y="545.794" width="15.9393" height="13.6628"/>
  <object id="58" x="755.405" y="533.669" width="2.0643" height="13.6628"/>
  <object id="59" x="674.364" y="319.877" width="42.606" height="17.6628"/>
  <object id="60" x="751.03" y="319.835" width="16.2727" height="31.9961"/>
  <object id="61" x="648.197" y="327.669" width="16.2727" height="17.6628"/>
  <object id="62" x="801.197" y="384.502" width="19.9394" height="29.9961"/>
  <object id="64" x="836.364" y="378.002" width="22.9394" height="29.9961"/>
  <object id="65" x="868.864" y="383.335" width="38.9394" height="15.9961"/>
  <object id="66" x="931.53" y="350.002" width="23.9394" height="32.6628"/>
  <object id="67" x="866.03" y="511.335" width="42.9394" height="19.9961"/>
  <object id="68" x="836.864" y="504.002" width="21.9394" height="31.9961"/>
  <object id="69" x="902.03" y="560.335" width="25.2727" height="42.9961"/>
  <object id="70" x="924.364" y="551.169" width="4.2727" height="42.9961"/>
  <object id="72" x="544.333" y="480.333" width="15" height="17"/>
 </objectgroup>
</map>
